!!!OTL: Damacheng
!!!ARE: Asia, China,ÿHubei Macheng
!! I, 404, 1)
!!!SCT: C2153
!!!YEM: Copyright 1995, estate of Helmut Schaffrath.
**kern
*ICvox
*Ivox
!! Mixed meters:  2/4; 3/4
*M2/4
*k[f#]
*G:
{8a
16g
16e
4g
=1
8e
16g
16e
4d}
=2
{8d
16a
16g
4d
=3
8d
16a
16g
4e}
=4
{8b
8a
16e
16g
16d
16e
=5
8b
8e
4e}
=6
*M3/4
{8d
8g
16e
16g
8e
8g
8e
=7
16e
16g
8e
4d
4d}
=8
*M2/4
{8b
8e
8d
8e
=9
8a
8d
8e
8g
=10
8d
8g
16e
16g
8e
8g
8e}
==
!!!AGN: Xiaodiao, Erge
!!!ONB: ESAC (Essen Associative Code) Database: SENGANSU
!!!AMT: irregular
!!!AIN: vox
!!!EED: Helmut Schaffrath
!!!EEV: 1.0
*-
